X:11
T:Zelda
I:last changed 14/2/2016
F:http://www.campin.me.uk/Music/Edinbal.abc
C:Philippe Plard
M:6/8
L:1/8
%P:AABBAABBCCDDCCDDAABB
P:AABB
K:AMin
P:A
L:1/8
%Q:3/8=132
"Am"e2A e2A|"F"fed "C" e3 |edc "E"B2B|[1    Bcd "Am"c2A:|\
                                      [2 "E"BcB "Am"A3 ||
P:B
M:6/8
L:1/8
%Q:3/8=132
"Am"ABc E2E|   ABc "Dm"F2F|ABc "E"B2B|[1    dcB "Am"c2A:|\
                                      [2 "E"dcB "Am"A3 |]
%P:C
%M:2/4
%L:1/16
%Q:1/4=132
%"Am"efed cdcB|   A2c2 "F7"^d4 |[1     ^d2e2 "E"B2e2|      dcBd    "Am"c2A2:|\
%                               [2 "F7"^d2e2 "E"B2E2|     ^G2```B2 "Am"A4  ||
%P:D
%M:2/4
%L:1/16
%Q:1/4=132
%"Am"E2AE cEAE|"F"F2AF      cFAF|  "G"  G2BG    dGBd|[1 "F"c2```B2     A2G2:|\
%                                                    [2 "F"c2"G"B2 "Am"A4  ||

